X: 17
T: Bel Acueil le sergent d'Amours
N: Derived from Bus3009-Bel_Acueil_le_sergent_dAmours.krn
C: Antoine Busnoys
%%abc-version 2.0
%%abcx-abcm2ps-target-version 5.9.1 (29 Sep 2008)
%%abc-creator hum2abc beta
%%abcx-conversion-date 2019/02/16 20:26:06
%%abc-edited-by Jesse Rodin
%%abc-edited-by Jesse Rodin 8/16/2013
%%abcx-initial-encoding-date 2013/08/16/
%%humdrum-veritas 2881499278
%%humdrum-veritas-data 2959927880
%%linebreak <none>
%%barnumbers 0
L: 1/4
M: 3/1
Q: 1/2=120
V: 1 clef=treble-8
V: 2 clef=treble-8
V: 3 clef=treble-8
K: F
[V:1] z12 | 
[V:2] z12 | 
[V:3] D4F4G4 | 
[V:1] z12 | 
[V:2] D4F4G4 | 
[V:3] B2A3GF2E4 | 
[V:1] D4F4G4 | 
[V:2] B2A3GF2E4 | 
[V:3] D4z4c4 | 
[V:1] B2A3GF2E4 | 
[V:2] D4z4c4 | 
[V:3] d4c2A4G2 | 
[V:1] D2C2F4E4 | 
[V:2] d2e3dd3^c^c=B | 
[V:3] B2c4A4G2 | 
[V:1] D3EF2G4F2 | 
[V:2] d4z4d4 | 
[V:3] A6B4A2 | 
[V:1] D4z4d4 | 
[V:2] d4c2B4AG | 
[V:3] F2G2A2G4F2 | 
[V:1] d4c2B4AG | 
[V:2] F2G2A2G4FE | 
[V:3] D4z4d4 | 
[V:1] F2G2A2G4FE | 
[V:2] D4z4d4 | 
[V:3] d4c2B4AG | 
[V:1] D2B3AG2F2A2- | 
[V:2] d4e4f3e | 
[V:3] F2G4FED2F2- | 
[V:1] ABc4A4G2 | 
[V:2] d2cBA2d4^c2 | 
[V:3] FGA4F2E4 | 
[V:1] A4z4A4 | 
[V:2] d8z4 | 
[V:3] D12 | 
[V:1] F4A4D4 | 
[V:2] A4F4A4 | 
[V:3] z2A4F4A2- | 
[V:1] d2f3ed3cBA | 
[V:2] D2A4B2G4 | 
[V:3] A2D2z2G3EG2 | 
[V:1] A4G2F2A2B2 | 
[V:2] F4z2c4d2 | 
[V:3] D4E2F3ED2 | 
[V:1] c2A3FA2G4 | 
[V:2] e2f4ededcB | 
[V:3] C2D2F4C4 | 
[V:1] F8z4 | 
[V:2] A6F2G2A2 | 
[V:3] c3Bc2d4c2 | 
[V:1] c3Bc2d4c2 | 
[V:2] F8z4 | 
[V:3] A6F2G2A2 | 
[V:1] A6F2G2A2 | 
[V:2] c3Bc2d4c2 | 
[V:3] F8z4 | 
[V:1] F3GA2GFE4 | 
[V:2] A3Bc2d4c2 | 
[V:3] c6BAG3F | 
[V:1] D4z4G4 | 
[V:2] d2A3GF2E4 | 
[V:3] A3Bc2d4^c2 | 
[V:1] F3GA3Bc2d2 | 
[V:2] D4z4A4 | 
[V:3] d4c2A3GF2 | 
[V:1] e2f3dd4^c2 | 
[V:2] G2F2D2A4G2 | 
[V:3] E2A4F2E4 | 
[V:1] d12 |]  
[V:2] A12 |]  
[V:3] D12 |]  



